icons/1_Primary/Restream.svg

<svg xmlns="http://www.w3.org/2000/svg" width="1024" height="1024" fill="none">
   <g clip-path="url(#a)">
      <path fill="#728DBE" d="M512 1024c282.77 0 512-229.23 512-512S794.77 0 512 0 0 229.23 0 512s229.23 512 512 512Z"/>
      <path fill="#fff" d="M128 555.6h34.1v-42.52h8l24.24 42.52h36.11l-28.59-49.16c12.54-4.82 21.56-14.28 21.56-31.23v-.66c0-25.08-17.39-37.7-48.65-37.7H128V555.6Zm34.1-64.6v-28.58h11.2c11 0 17.05 3.82 17.05 13.45v.66c0 9.63-5.68 14.45-17.22 14.45l-11.03.02Zm118.33 66.6c26.41 0 41.62-11.13 44.3-30.73h-28.08c-1.17 5.81-5.35 10.3-15.21 10.3-10.7 0-17.39-6.64-18.22-18.1h61.52v-7.81c0-31.23-20.56-44.85-44.47-44.85-26.42 0-47.27 17.59-47.27 45.51v1.33c0 28.4 20 44.34 47.43 44.34v.01Zm-16.88-55.31c1.5-10.46 7.69-16.28 16.72-16.28 9.7 0 14.88 5.81 15.38 16.28h-32.1Zm109.08 55.31c24.24 0 39.62-9.3 39.62-29.9 0-18.6-11.7-24.91-35.94-27.9-10.7-1.33-14.71-3-14.71-7.14 0-4 3.34-6.81 9.86-6.81 6.85 0 10 2.82 11.2 8.64h27.08c-2-20.76-17.05-28.07-38.62-28.07-20.23 0-37.44 9.3-37.44 28.57 0 18.1 9.86 24.91 33.27 27.9 12 1.66 16.21 3.65 16.21 7.81 0 4.32-3.34 7.14-10.7 7.14-8.53 0-11.37-3.49-12.37-9.8h-27.58c.67 19.26 15.21 29.55 40.12 29.55v.01Zm86.53 0a63.13 63.13 0 0 0 16.55-2.49v-22.6a22.92 22.92 0 0 1-8.53 1.49c-5.68 0-8.86-2.82-8.86-9.13V489h17.22v-20.27h-17.21v-18.1h-29.92v18.1h-10.53V489h10.53v38.7c0 20.43 11.03 29.89 30.76 29.89l-.01.01Zm30.2-2h29.92v-41.19c0-14 10-19.6 28.25-19.1v-27.74c-13.54-.17-22.73 5.48-28.25 18.44v-17.28h-29.91l-.01 86.87Zm113.48 2c26.41 0 41.62-11.13 44.3-30.73h-28.08c-1.17 5.81-5.35 10.3-15.21 10.3-10.7 0-17.38-6.64-18.22-18.1h61.52v-7.81c0-31.23-20.56-44.85-44.47-44.85-26.41 0-47.31 17.61-47.31 45.51v1.33c0 28.4 20.06 44.34 47.48 44.34l-.01.01ZM586 502.28c1.5-10.46 7.69-16.28 16.72-16.28 9.7 0 14.88 5.81 15.38 16.28H586Zm99.39 55.31c14 0 21.73-5.81 25.91-12.12v10.13h29.09v-56.31c0-23.09-15.38-32.89-39.45-32.89-23.9 0-40.45 10.3-41.79 31.23h28.08c.67-5.48 3.68-10.3 11.87-10.3 9.53 0 11.53 5.48 11.53 13.79v2h-8.36c-29.09 0-46.47 8-46.47 28.4-.04 18.48 13.84 26.07 29.55 26.07h.04Zm10.36-20.1c-7 0-10.36-3.16-10.36-8.14 0-7.14 5.35-9.47 17.39-9.47h7.86v5.32c-.05 7.48-6.4 12.3-14.93 12.3l.04-.01Zm61.7 18.1h29.92v-50.32c0-9.47 5.35-14.62 13.37-14.62 6.85 0 11.2 4.32 11.2 13.12v51.83h29.56v-50.33c0-9.47 5.35-14.62 13.37-14.62 6.85 0 11.2 4.32 11.2 13.12v51.83H896v-56.8c0-21.76-12-32.39-28.59-32.39a34.72 34.72 0 0 0-28.92 14.45c-4.18-9.47-12.2-14.45-23.74-14.45-13.54 0-22.73 7.31-27.42 15.61v-13.29h-29.91l.03 86.86Z"/>
   </g>
   <defs>
      <clipPath id="a">
         <path fill="#fff" d="M0 0h1024v1024H0z"/>
      </clipPath>
   </defs>
</svg>

<svg width="1024" height="1024" viewBox="0 0 1024 1024" fill="none" xmlns="http://www.w3.org/2000/svg">
<g clip-path="url(#clip0_2_3333)">
<path d="M512 1024C794.77 1024 1024 794.77 1024 512C1024 229.23 794.77 0 512 0C229.23 0 0 229.23 0 512C0 794.77 229.23 1024 512 1024Z" fill="#728DBE"/>
<path d="M128 555.6H162.1V513.08H170.1L194.34 555.6H230.45L201.86 506.44C214.4 501.62 223.42 492.16 223.42 475.21V474.55C223.42 449.47 206.03 436.85 174.77 436.85H128V555.6ZM162.1 491V462.42H173.3C184.3 462.42 190.35 466.24 190.35 475.87V476.53C190.35 486.16 184.67 490.98 173.13 490.98L162.1 491ZM280.43 557.6C306.84 557.6 322.05 546.47 324.73 526.87H296.65C295.48 532.68 291.3 537.17 281.44 537.17C270.74 537.17 264.05 530.53 263.22 519.07H324.74V511.26C324.74 480.03 304.18 466.41 280.27 466.41C253.85 466.41 233 484 233 511.92V513.25C233 541.65 253 557.59 280.43 557.59V557.6ZM263.55 502.29C265.05 491.83 271.24 486.01 280.27 486.01C289.97 486.01 295.15 491.82 295.65 502.29H263.55ZM372.63 557.6C396.87 557.6 412.25 548.3 412.25 527.7C412.25 509.1 400.55 502.79 376.31 499.8C365.61 498.47 361.6 496.8 361.6 492.66C361.6 488.66 364.94 485.85 371.46 485.85C378.31 485.85 381.46 488.67 382.66 494.49H409.74C407.74 473.73 392.69 466.42 371.12 466.42C350.89 466.42 333.68 475.72 333.68 494.99C333.68 513.09 343.54 519.9 366.95 522.89C378.95 524.55 383.16 526.54 383.16 530.7C383.16 535.02 379.82 537.84 372.46 537.84C363.93 537.84 361.09 534.35 360.09 528.04H332.51C333.18 547.3 347.72 557.59 372.63 557.59V557.6ZM459.16 557.6C464.763 557.508 470.328 556.671 475.71 555.11V532.51C472.987 533.544 470.092 534.05 467.18 534C461.5 534 458.32 531.18 458.32 524.87V489H475.54V468.73H458.33V450.63H428.41V468.73H417.88V489H428.41V527.7C428.41 548.13 439.44 557.59 459.17 557.59L459.16 557.6ZM489.36 555.6H519.28V514.41C519.28 500.41 529.28 494.81 547.53 495.31V467.57C533.99 467.4 524.8 473.05 519.28 486.01V468.73H489.37L489.36 555.6ZM602.84 557.6C629.25 557.6 644.46 546.47 647.14 526.87H619.06C617.89 532.68 613.71 537.17 603.85 537.17C593.15 537.17 586.47 530.53 585.63 519.07H647.15V511.26C647.15 480.03 626.59 466.41 602.68 466.41C576.27 466.41 555.37 484.02 555.37 511.92V513.25C555.37 541.65 575.43 557.59 602.85 557.59L602.84 557.6ZM586 502.28C587.5 491.82 593.69 486 602.72 486C612.42 486 617.6 491.81 618.1 502.28H586ZM685.39 557.59C699.39 557.59 707.12 551.78 711.3 545.47V555.6H740.39V499.29C740.39 476.2 725.01 466.4 700.94 466.4C677.04 466.4 660.49 476.7 659.15 497.63H687.23C687.9 492.15 690.91 487.33 699.1 487.33C708.63 487.33 710.63 492.81 710.63 501.12V503.12H702.27C673.18 503.12 655.8 511.12 655.8 531.52C655.76 550 669.64 557.59 685.35 557.59H685.39ZM695.75 537.49C688.75 537.49 685.39 534.33 685.39 529.35C685.39 522.21 690.74 519.88 702.78 519.88H710.64V525.2C710.59 532.68 704.24 537.5 695.71 537.5L695.75 537.49ZM757.45 555.59H787.37V505.27C787.37 495.8 792.72 490.65 800.74 490.65C807.59 490.65 811.94 494.97 811.94 503.77V555.6H841.5V505.27C841.5 495.8 846.85 490.65 854.87 490.65C861.72 490.65 866.07 494.97 866.07 503.77V555.6H896V498.8C896 477.04 884 466.41 867.41 466.41C861.779 466.293 856.204 467.547 851.166 470.065C846.128 472.582 841.778 476.287 838.49 480.86C834.31 471.39 826.29 466.41 814.75 466.41C801.21 466.41 792.02 473.72 787.33 482.02V468.73H757.42L757.45 555.59Z" fill="white"/>
</g>
<defs>
<clipPath id="clip0_2_3333">
<rect width="1024" height="1024" fill="white"/>
</clipPath>
</defs>
</svg>
